resources/icons/20px/diagram-tree.svg

<?xml version="1.0" encoding="UTF-8"?>
<svg width="20px" height="20px" viewBox="0 0 20 20" version="1.1" xmlns="http://www.w3.org/2000/svg" xmlns:xlink="http://www.w3.org/1999/xlink">
    <!-- Generator: Sketch 50 (54983) - http://www.bohemiancoding.com/sketch -->
    <title>20</title>
    <desc>Created with Sketch.</desc>
    <defs></defs>
    <g id="20" stroke="none" stroke-width="1" fill="none" fill-rule="evenodd">
        <path d="M19,10 L19,15 L17,15 L17,11 L11,11 L11,15 L9,15 L9,11 L3,11 L3,15 L1,15 L1,10 C1,9.44771525 1.44771525,9 2,9 L9,9 L9,5 L11,5 L11,9 L18,9 C18.5522847,9 19,9.44771525 19,10 Z M1,16 L3,16 C3.55228475,16 4,16.4477153 4,17 L4,19 C4,19.5522847 3.55228475,20 3,20 L1,20 C0.44771525,20 6.76353751e-17,19.5522847 0,19 L0,17 C-6.76353751e-17,16.4477153 0.44771525,16 1,16 Z M17,16 L19,16 C19.5522847,16 20,16.4477153 20,17 L20,19 C20,19.5522847 19.5522847,20 19,20 L17,20 C16.4477153,20 16,19.5522847 16,19 L16,17 C16,16.4477153 16.4477153,16 17,16 Z M9,16 L11,16 C11.5522847,16 12,16.4477153 12,17 L12,19 C12,19.5522847 11.5522847,20 11,20 L9,20 C8.44771525,20 8,19.5522847 8,19 L8,17 C8,16.4477153 8.44771525,16 9,16 Z M9,0 L11,0 C11.5522847,-1.01453063e-16 12,0.44771525 12,1 L12,3 C12,3.55228475 11.5522847,4 11,4 L9,4 C8.44771525,4 8,3.55228475 8,3 L8,1 C8,0.44771525 8.44771525,1.01453063e-16 9,0 Z" id="Organization" fill="#000000"></path>
    </g>
</svg>

<svg xmlns="http://www.w3.org/2000/svg" viewBox="0 0 20 20">
  <path d="M19 10v5h-2v-4h-6v4H9v-4H3v4H1v-5a1 1 0 0 1 1-1h7V5h2v4h7a1 1 0 0 1 1 1M1 16h2a1 1 0 0 1 1 1v2a1 1 0 0 1-1 1H1a1 1 0 0 1-1-1v-2a1 1 0 0 1 1-1m16 0h2a1 1 0 0 1 1 1v2a1 1 0 0 1-1 1h-2a1 1 0 0 1-1-1v-2a1 1 0 0 1 1-1m-8 0h2a1 1 0 0 1 1 1v2a1 1 0 0 1-1 1H9a1 1 0 0 1-1-1v-2a1 1 0 0 1 1-1M9 0h2a1 1 0 0 1 1 1v2a1 1 0 0 1-1 1H9a1 1 0 0 1-1-1V1a1 1 0 0 1 1-1"/>
</svg>
